src/images/male.svg

<svg width="222" height="500" viewBox="0 0 222 500" fill="none" xmlns="http://www.w3.org/2000/svg">
<path d="M161.2 61.7002C161.2 89.6002 138.6 112.3 110.7 112.3C82.7996 112.3 60.0996 89.7002 60.0996 61.8002C60.0996 33.9002 82.6996 11.2002 110.6 11.2002C138.6 11.2002 161.2 33.8002 161.2 61.7002Z" fill="#DDDDDD"/>
<path d="M184.4 126.4H36.9995C28.3995 126.4 21.3995 133.4 21.3995 142V295.3C21.2995 303.9 27.9995 311.1 36.4995 311.5C45.0995 311.8 52.2995 305 52.5995 296.4C52.5995 296.2 52.5995 296.1 52.5995 295.9V161.4C52.5995 159.3 54.2995 157.6 56.3995 157.6C58.4995 157.6 60.1995 159.3 60.1995 161.4V476.3C60.0995 486.9 68.1995 495.9 78.7995 496.8C89.7995 497.5 99.1995 489.2 99.9995 478.3C99.9995 477.9 99.9995 477.4 99.9995 477V311.6H121.5V476.2C121.4 486.8 129.5 495.8 140.1 496.7C151.1 497.4 160.5 489.1 161.3 478.2C161.3 477.8 161.3 477.3 161.3 476.9V161.4C161.3 159.3 163 157.6 165.1 157.6C167.2 157.6 168.9 159.3 168.9 161.4V295.4C168.8 304 175.4 311.2 184 311.6C192.6 311.9 199.8 305.1 200.1 296.5C200.1 296.3 200.1 296.2 200.1 296V142C200 133.3 193 126.4 184.4 126.4Z" fill="#DDDDDD"/>
<mask id="mask0_48_50" style="mask-type:alpha" maskUnits="userSpaceOnUse" x="21" y="11" width="180" height="486">
<path d="M161.2 61.7002C161.2 89.6002 138.6 112.3 110.7 112.3C82.7996 112.3 60.0996 89.7002 60.0996 61.8002C60.0996 33.9002 82.6996 11.2002 110.6 11.2002C138.6 11.2002 161.2 33.8002 161.2 61.7002Z" fill="#DDDDDD"/>
<path d="M184.4 126.4H36.9995C28.3995 126.4 21.3995 133.4 21.3995 142V295.3C21.2995 303.9 27.9995 311.1 36.4995 311.5C45.0995 311.8 52.2995 305 52.5995 296.4C52.5995 296.2 52.5995 296.1 52.5995 295.9V161.4C52.5995 159.3 54.2995 157.6 56.3995 157.6C58.4995 157.6 60.1995 159.3 60.1995 161.4V476.3C60.0995 486.9 68.1995 495.9 78.7995 496.8C89.7995 497.5 99.1995 489.2 99.9995 478.3C99.9995 477.9 99.9995 477.4 99.9995 477V311.6H121.5V476.2C121.4 486.8 129.5 495.8 140.1 496.7C151.1 497.4 160.5 489.1 161.3 478.2C161.3 477.8 161.3 477.3 161.3 476.9V161.4C161.3 159.3 163 157.6 165.1 157.6C167.2 157.6 168.9 159.3 168.9 161.4V295.4C168.8 304 175.4 311.2 184 311.6C192.6 311.9 199.8 305.1 200.1 296.5C200.1 296.3 200.1 296.2 200.1 296V142C200 133.3 193 126.4 184.4 126.4Z" fill="#DDDDDD"/>
</mask>
<g mask="url(#mask0_48_50)">
<rect x="21" y="9" width="179" height="488" fill="#D9D9D9"/>
</g>
</svg>

<?xml version="1.0" encoding="utf-8"?>
<!-- Generator: Adobe Illustrator 27.0.1, SVG Export Plug-In . SVG Version: 6.00 Build 0)  -->
<svg version="1.1" id="Layer_1" xmlns="http://www.w3.org/2000/svg" xmlns:xlink="http://www.w3.org/1999/xlink" x="0px" y="0px"
	 viewBox="0 0 221.2 500" enable-background="new 0 0 221.2 500" xml:space="preserve">
<g id="Group_2478" transform="translate(0 0)">
	<g id="Group_2477">
		<path id="Path_2278" fill="#DDDDDD" d="M161.2,61.7c0,27.9-22.6,50.6-50.5,50.6c-27.9,0-50.6-22.6-50.6-50.5
			c0-27.9,22.6-50.6,50.5-50.6l0,0C138.6,11.2,161.2,33.8,161.2,61.7z"/>
		<path id="Path_2279" fill="#DDDDDD" d="M184.4,126.4H37c-8.6,0-15.6,7-15.6,15.6v153.3c-0.1,8.6,6.6,15.8,15.1,16.2
			c8.6,0.3,15.8-6.5,16.1-15.1c0-0.2,0-0.3,0-0.5V161.4c0-2.1,1.7-3.8,3.8-3.8c0,0,0,0,0,0l0,0c2.1,0,3.8,1.7,3.8,3.8c0,0,0,0,0,0
			v314.9c-0.1,10.6,8,19.6,18.6,20.5c11,0.7,20.4-7.6,21.2-18.5c0-0.4,0-0.9,0-1.3V311.6h21.5v164.6c-0.1,10.6,8,19.6,18.6,20.5
			c11,0.7,20.4-7.6,21.2-18.5c0-0.4,0-0.9,0-1.3V161.4c0-2.1,1.7-3.8,3.8-3.8c0,0,0,0,0,0l0,0c2.1,0,3.8,1.7,3.8,3.8c0,0,0,0,0,0
			v134c-0.1,8.6,6.5,15.8,15.1,16.2c8.6,0.3,15.8-6.5,16.1-15.1c0-0.2,0-0.3,0-0.5V142C200,133.3,193,126.4,184.4,126.4z"/>
	</g>
</g>
</svg>
